X: 1
T: Paddy Jim Frank's
M: 4/4
L: 1/8
R: reel
K: Gmaj
B2 eB dBGB|A2 BG AGed|B2 eB dBgB|AGAB A2 GA|
B2 eB dBGB|A2 bg agef|g2 fg edBA|1GA{B}AF ~g2 GA:|2 GA{B}af ~g3 z||
gedB GABd|g2 dB GABd|egdB GABd|e2 dB ~a3 z|
gedB GABd|g2 dB GA B/c/d|g2 fg edBA|1 GA{B}AF ~g3 z:|2 GA{B}AF G2 GA||
